assets/note-favorite.svg

<svg width="50" height="50" viewBox="0 0 50 50" fill="none" xmlns="http://www.w3.org/2000/svg">
<path d="M16.6665 4.1665V10.4165" stroke="#292D32" stroke-width="3" stroke-miterlimit="10" stroke-linecap="round" stroke-linejoin="round"/>
<path d="M33.3335 4.1665V10.4165" stroke="#292D32" stroke-width="3" stroke-miterlimit="10" stroke-linecap="round" stroke-linejoin="round"/>
<path d="M6.25 17.7082C6.25 11.4582 9.375 7.2915 16.6667 7.2915H33.3333C40.625 7.2915 43.75 11.4582 43.75 17.7082V28.3957C41.8958 26.9165 39.5417 26.0415 36.9792 26.0415C34.4167 26.0415 32.0208 26.9373 30.1458 28.4581C27.625 30.4373 26.0417 33.5415 26.0417 36.979C26.0417 39.0207 26.625 40.979 27.625 42.604C28.3959 43.8749 29.3958 44.979 30.5833 45.8332H16.6667C9.375 45.8332 6.25 41.6665 6.25 35.4165V26.1874" stroke="#292D32" stroke-width="3" stroke-miterlimit="10" stroke-linecap="round" stroke-linejoin="round"/>
<path d="M14.5835 22.9165H27.0835" stroke="#292D32" stroke-width="3" stroke-miterlimit="10" stroke-linecap="round" stroke-linejoin="round"/>
<path d="M14.5835 33.3335H20.0418" stroke="#292D32" stroke-width="3" stroke-miterlimit="10" stroke-linecap="round" stroke-linejoin="round"/>
<path d="M47.9165 36.979C47.9165 39.0207 47.3331 40.979 46.3331 42.604C45.7498 43.604 45.0207 44.479 44.1665 45.1873C42.2499 46.8957 39.7498 47.9165 36.979 47.9165C34.5832 47.9165 32.3748 47.1457 30.5832 45.8332C29.3957 44.979 28.3957 43.8749 27.6249 42.604C26.6249 40.979 26.0415 39.0207 26.0415 36.979C26.0415 33.5415 27.6248 30.4373 30.1457 28.4581C32.0207 26.9373 34.4165 26.0415 36.979 26.0415C39.5415 26.0415 41.8957 26.9165 43.7498 28.3957C46.2915 30.3957 47.9165 33.4998 47.9165 36.979Z" stroke="#292D32" stroke-width="3" stroke-miterlimit="10" stroke-linecap="round" stroke-linejoin="round"/>
<path d="M36.9793 42.1877C36.9793 39.3127 39.3127 36.9793 42.1877 36.9793C39.3127 36.9793 36.9793 34.646 36.9793 31.771C36.9793 34.646 34.646 36.9793 31.771 36.9793C34.646 36.9793 36.9793 39.3127 36.9793 42.1877Z" stroke="#292D32" stroke-width="3" stroke-linecap="round" stroke-linejoin="round"/>
</svg>

<svg xmlns="http://www.w3.org/2000/svg" width="50" height="50" fill="none" stroke="#292d32" stroke-width="3" xmlns:v="https://vecta.io/nano"><g stroke-miterlimit="10"><g stroke-linecap="round" stroke-linejoin="round"><path d="M16.667 4.167v6.25m16.667-6.25v6.25"/><path d="M6.25 17.708c0-6.25 3.125-10.417 10.417-10.417h16.667c7.292 0 10.417 4.167 10.417 10.417v10.688c-1.854-1.479-4.208-2.354-6.771-2.354a10.84 10.84 0 0 0-6.833 2.417c-2.521 1.979-4.104 5.083-4.104 8.521 0 2.042.583 4 1.583 5.625a10.97 10.97 0 0 0 2.958 3.229H16.667c-7.292 0-10.417-4.167-10.417-10.417v-9.229"/><path d="M14.584 22.917h12.5m-12.5 10.417h5.458"/></g><path d="M47.917 36.979c0 2.042-.583 4-1.583 5.625-.583 1-1.312 1.875-2.167 2.583a10.72 10.72 0 0 1-7.187 2.729c-2.396 0-4.604-.771-6.396-2.083-1.187-.854-2.187-1.958-2.958-3.229-1-1.625-1.583-3.583-1.583-5.625 0-3.437 1.583-6.542 4.104-8.521a10.84 10.84 0 0 1 6.833-2.417 10.81 10.81 0 0 1 6.771 2.354c2.542 2 4.167 5.104 4.167 8.583z" stroke-linejoin="round"/></g><path d="M36.979 42.188a5.21 5.21 0 0 1 5.208-5.208 5.21 5.21 0 0 1-5.208-5.208 5.21 5.21 0 0 1-5.208 5.208 5.21 5.21 0 0 1 5.208 5.208z" stroke-linejoin="round"/></svg>
